svg/fluentui-system-icons/ic_fluent_lasso_28_regular.svg

<svg width="28" height="28" viewBox="0 0 28 28" fill="none" xmlns="http://www.w3.org/2000/svg">
<path d="M5.26257 8.175C5.05019 8.49293 4.64406 8.63029 4.29263 8.47968C3.8801 8.30287 3.7101 7.80627 3.95612 7.43088C4.84635 6.07252 6.00472 4.90569 7.35599 4.0056C7.72952 3.75679 8.22737 3.92305 8.40727 4.33423C8.56052 4.68453 8.42621 5.09168 8.10987 5.30643C6.98577 6.06952 6.01746 7.04492 5.26257 8.175ZM3.30649 10.777C3.65811 10.9277 3.83872 11.3167 3.75492 11.69C3.58805 12.4333 3.5 13.2064 3.5 14C3.5 14.7937 3.58806 15.5668 3.75494 16.3101C3.83874 16.6833 3.65813 17.0724 3.30651 17.2231C2.89409 17.3999 2.41733 17.1808 2.31514 16.7438C2.10901 15.8626 2 14.944 2 14C2 13.056 2.10901 12.1374 2.31512 11.2562C2.41731 10.8193 2.89407 10.6002 3.30649 10.777ZM4.29268 19.5204C4.64411 19.3698 5.05024 19.5071 5.26262 19.8251C6.0271 20.9695 7.01044 21.9553 8.15279 22.7226C8.49647 22.9534 8.62287 23.4091 8.41747 23.7686C8.21178 24.1285 7.75161 24.2553 7.40545 24.0272C6.033 23.1227 4.85724 21.9441 3.95617 20.5692C3.71015 20.1938 3.88014 19.6972 4.29268 19.5204ZM16.2836 25.7671C15.3733 25.9273 14.2777 25.9799 13.2916 25.7843C12.6081 25.6487 11.9125 25.381 11.3786 24.8823C10.8226 24.3629 10.5 23.6457 10.5 22.7496C10.5 21.6152 11.3272 20.5863 12.5556 20.0082C13.8082 19.4187 15.5541 19.2397 17.6819 19.7716C19.0804 20.1212 20.2168 20.873 21.1133 21.7235C21.7266 21.1583 22.2725 20.521 22.7374 19.8251C22.9498 19.5072 23.3559 19.3698 23.7073 19.5204C24.1199 19.6972 24.2898 20.1938 24.0438 20.5692C23.4985 21.4013 22.8526 22.1614 22.1234 22.8324C22.2518 22.9944 22.3724 23.1554 22.4853 23.3135C22.9832 24.0106 23.3472 24.6727 23.5872 25.1609C23.7074 25.4056 23.7973 25.6082 23.8579 25.7518C23.8883 25.8236 23.9113 25.8808 23.9272 25.9213C23.9352 25.9415 23.9414 25.9575 23.9458 25.9691L23.9511 25.9831L23.9528 25.9876L23.9533 25.9892L23.9538 25.9903C24.0972 26.3789 23.8979 26.8102 23.5093 26.9534C23.1208 27.0964 22.69 26.8978 22.5465 26.5096L22.5439 26.5028L22.5315 26.4707C22.5198 26.4411 22.5014 26.3952 22.476 26.3352C22.4253 26.2151 22.3473 26.0388 22.241 25.8225C22.0278 25.3888 21.7043 24.8008 21.2647 24.1853C21.1676 24.0494 21.0656 23.9131 20.9586 23.7776C19.6273 24.7268 18.0939 25.4108 16.4355 25.7527C16.3843 25.7633 16.3334 25.7679 16.2836 25.7671ZM19.9265 22.6688C19.2041 22.0189 18.3368 21.4815 17.3181 21.2268C15.4459 20.7588 14.0668 20.9548 13.1944 21.3654C12.2978 21.7874 12 22.3837 12 22.7496C12 23.2536 12.1669 23.566 12.4026 23.7862C12.6604 24.027 13.0586 24.2088 13.5834 24.3129C14.6423 24.523 15.952 24.3645 16.7821 24.1124C16.8354 24.0963 16.8891 24.0863 16.9424 24.0822C18.0185 23.7686 19.0233 23.2874 19.9265 22.6688ZM24.6935 17.2231C24.3419 17.0724 24.1613 16.6833 24.2451 16.3101C24.4119 15.5668 24.5 14.7937 24.5 14C24.5 13.2064 24.4119 12.4333 24.2451 11.69C24.1613 11.3168 24.3419 10.9277 24.6935 10.777C25.1059 10.6002 25.5827 10.8194 25.6849 11.2563C25.891 12.1375 26 13.056 26 14C26 14.944 25.891 15.8626 25.6849 16.7438C25.5827 17.1807 25.1059 17.3999 24.6935 17.2231ZM23.7074 8.47969C23.3559 8.63031 22.9498 8.49295 22.7374 8.17502C21.9826 7.04494 21.0143 6.06955 19.8902 5.30645C19.5738 5.0917 19.4395 4.68455 19.5928 4.33426C19.7727 3.92308 20.2705 3.75682 20.6441 4.00563C21.9953 4.90572 23.1537 6.07255 24.0439 7.4309C24.2899 7.80629 24.1199 8.30289 23.7074 8.47969ZM17.303 3.33086C17.1496 3.68134 16.7592 3.85902 16.3866 3.77241C15.6199 3.59421 14.8209 3.5 14 3.5C13.1791 3.5 12.3802 3.59421 11.6135 3.7724C11.2409 3.85901 10.8504 3.68133 10.6971 3.33085C10.5172 2.91977 10.7328 2.44138 11.1689 2.3359C12.0767 2.11634 13.0247 2 14 2C14.9753 2 15.9234 2.11634 16.8312 2.33591C17.2673 2.4414 17.4828 2.91978 17.303 3.33086Z" fill="#212121"/>
</svg>

<svg xmlns="http://www.w3.org/2000/svg" width="28" height="28"><path d="M5.263 8.175a.797.797 0 0 1-.97.305c-.413-.177-.583-.674-.337-1.05a12.065 12.065 0 0 1 3.4-3.424c.374-.25.871-.083 1.051.328a.797.797 0 0 1-.297.972 10.558 10.558 0 0 0-2.847 2.869Zm-1.957 2.602c.352.15.533.54.449.913A10.536 10.536 0 0 0 3.5 14c0 .794.088 1.567.255 2.31a.797.797 0 0 1-.448.913c-.413.177-.89-.042-.992-.48a12.07 12.07 0 0 1 0-5.487c.102-.437.58-.656.991-.479Zm.987 8.743a.797.797 0 0 1 .97.305 10.558 10.558 0 0 0 2.89 2.898c.343.23.47.686.264 1.046a.715.715 0 0 1-1.012.258 12.066 12.066 0 0 1-3.449-3.458c-.246-.375-.076-.872.337-1.049Zm11.99 6.247c-.91.16-2.005.213-2.991.017-.684-.135-1.38-.403-1.913-.902-.556-.52-.879-1.236-.879-2.132 0-1.135.827-2.164 2.056-2.742 1.252-.59 2.998-.768 5.126-.236 1.398.35 2.535 1.101 3.431 1.952a10.56 10.56 0 0 0 1.624-1.899.797.797 0 0 1 .97-.305c.413.177.583.674.337 1.05a12.059 12.059 0 0 1-1.92 2.262 13.336 13.336 0 0 1 1.735 2.92 6.95 6.95 0 0 1 .087.217l.005.014.002.005v.002a.75.75 0 0 1-1.406.52l-.003-.007-.012-.032a9.92 9.92 0 0 0-.29-.648 11.834 11.834 0 0 0-1.283-2.045 11.94 11.94 0 0 1-4.523 1.975.694.694 0 0 1-.152.014Zm3.643-3.098c-.722-.65-1.59-1.188-2.608-1.442-1.872-.468-3.251-.272-4.124.138-.896.422-1.194 1.019-1.194 1.385 0 .504.167.816.403 1.036.257.241.656.423 1.18.527 1.06.21 2.369.052 3.2-.2a.754.754 0 0 1 .16-.03 10.459 10.459 0 0 0 2.983-1.414Zm4.768-5.446a.797.797 0 0 1-.449-.913A10.54 10.54 0 0 0 24.5 14c0-.794-.088-1.567-.255-2.31a.797.797 0 0 1 .448-.913c.413-.177.89.042.992.48.206.88.315 1.799.315 2.743s-.109 1.863-.315 2.744c-.102.437-.58.656-.991.48Zm-.987-8.743a.797.797 0 0 1-.97-.305 10.556 10.556 0 0 0-2.847-2.869.796.796 0 0 1-.297-.972c.18-.41.677-.577 1.051-.328 1.351.9 2.51 2.067 3.4 3.425.246.375.076.872-.337 1.049Zm-6.404-5.15a.797.797 0 0 1-.916.442A10.532 10.532 0 0 0 14 3.5c-.82 0-1.62.094-2.386.272a.797.797 0 0 1-.917-.441c-.18-.411.036-.89.472-.995A12.03 12.03 0 0 1 14 2c.975 0 1.923.116 2.831.336.436.105.652.584.472.995Z"/></svg>
